X: 1
T:Humours of Glendart
M:6/8
L:1/8
R:Jig
K:D
A|BAF ADD|FEF  DFA|BAF ADD|FEE E2A|BAF ADD|FEF DFA|dcB AFE|FDD D2:||
A|def  d2B|ABA AFD|def d2f|ede fdB|def d2B|ABA ABc|dcB AFE|FDD D2 :||
